svg/fluentui-system-icons/ic_fluent_table_link_16_regular.svg

<svg width="16" height="16" viewBox="0 0 16 16" fill="none" xmlns="http://www.w3.org/2000/svg">
<path d="M2 4.5C2 3.11929 3.11929 2 4.5 2H11.5C12.8807 2 14 3.11929 14 4.5V9.33682C13.6891 9.18915 13.3531 9.08595 13 9.03544V6H11V9H10V6L6 6V10H6.05051C5.40223 10.6353 5 11.5207 5 12.5V11H3V11.5C3 12.3284 3.67157 13 4.5 13H5V12.5C5 13.0368 5.12085 13.5454 5.33682 14H4.5C3.11929 14 2 12.8807 2 11.5V4.5ZM5 6H3V10H5V6ZM6 5L10 5V3H6V5ZM5 3H4.5C3.67157 3 3 3.67157 3 4.5V5H5V3ZM13 5V4.5C13 3.67157 12.3284 3 11.5 3H11V5H13ZM8.5 10C7.11929 10 6 11.1193 6 12.5C6 13.8807 7.11929 15 8.5 15H9C9.27614 15 9.5 14.7761 9.5 14.5C9.5 14.2239 9.27614 14 9 14H8.5C7.67157 14 7 13.3284 7 12.5C7 11.6716 7.67157 11 8.5 11H9C9.27614 11 9.5 10.7761 9.5 10.5C9.5 10.2239 9.27614 10 9 10H8.5ZM12 10C11.7239 10 11.5 10.2239 11.5 10.5C11.5 10.7761 11.7239 11 12 11H12.5C13.3284 11 14 11.6716 14 12.5C14 13.3284 13.3284 14 12.5 14H12C11.7239 14 11.5 14.2239 11.5 14.5C11.5 14.7761 11.7239 15 12 15H12.5C13.8807 15 15 13.8807 15 12.5C15 11.1193 13.8807 10 12.5 10H12ZM8 12.5C8 12.2239 8.22386 12 8.5 12H12.5C12.7761 12 13 12.2239 13 12.5C13 12.7761 12.7761 13 12.5 13H8.5C8.22386 13 8 12.7761 8 12.5Z" fill="#212121"/>
</svg>

<svg xmlns="http://www.w3.org/2000/svg" width="16" height="16"><path d="M2 4.5A2.5 2.5 0 0 1 4.5 2h7A2.5 2.5 0 0 1 14 4.5v4.837a3.476 3.476 0 0 0-1-.302V6h-2v3h-1V6H6v4h.05A3.49 3.49 0 0 0 5 12.5V11H3v.5A1.5 1.5 0 0 0 4.5 13H5v-.5c0 .537.12 1.045.337 1.5H4.5A2.5 2.5 0 0 1 2 11.5v-7ZM5 6H3v4h2V6Zm1-1h4V3H6v2ZM5 3h-.5A1.5 1.5 0 0 0 3 4.5V5h2V3Zm8 2v-.5A1.5 1.5 0 0 0 11.5 3H11v2h2Zm-4.5 5a2.5 2.5 0 0 0 0 5H9a.5.5 0 0 0 0-1h-.5a1.5 1.5 0 0 1 0-3H9a.5.5 0 0 0 0-1h-.5Zm3.5 0a.5.5 0 0 0 0 1h.5a1.5 1.5 0 0 1 0 3H12a.5.5 0 0 0 0 1h.5a2.5 2.5 0 0 0 0-5H12Zm-4 2.5a.5.5 0 0 1 .5-.5h4a.5.5 0 0 1 0 1h-4a.5.5 0 0 1-.5-.5Z"/></svg>
